X: 2195
M: C
L: 1/16
K: F
c2 |\
fa3ga3 f3cdf3 | c3F dcBA BG3G3c |\
fa3ga3 | f3cdf3 | c3f efge fF3A3c |
(3f2g2a2 (3e2f2g2 (3d2e2f2 (3c2B2A2 | (3B2c2d2 (3c2B2A2 BG3G3B |\
(3A2B2c2 (3c2B2A2 (3B2c2d2 (3d2c2B2 | (3d2e2f2 (3e2f2g2 af3f2 |]


